X:1
T:Title
%%score 1 ( 2 3 )
L:1/8
Q:1/4=70
M:4/4
K:Ab
V:1 treble nm="Strings 1, Soprano"
V:2 bass nm="Strings 1, Bass"
V:3 bass 
V:1
 [CE]2 [CE]2 [CE]3 [CE] | [DF]2 [DA]2 [CA]2 [EA]2 | [EB]2 [EB]2 [EB]3 [EB] | [Ec]2 [EA]2 [EB]4 | %4
 [Ec]2 [DB]2 [CA]3 [DF] | [DA]2 [DA]2 [DF]2 [CE]2 | [CE]2 [DE]2 E3 E | [DF]2 [DA]2 [CA]4 | %8
 [EB]2 [EB]2 [DB]3 [CA] | [EB]2 [EB]2 [Ec]2 [Ae]2 | [Ae]2 [Ae]2 [Af]3 [Ae] | [Ec]2 [=DA]2 [EB]4 | %12
 [Ec]2 [DB]2 [CA]3 [DF] | [DA]2 [DA]2 [DF]2 [CE]2 | [CE]2 [DE]2 E3 E | [DF]2 [DA]2 [CA]4 |] %16
V:2
 [A,,A,]2 [A,,A,]2 [A,,A,]3 [A,,A,] | [D,A,]2 [D,F,]2 [A,,E,]2 [C,A,]2 | %2
w: 1.~As~ sweet~ strains~ of~|heav'n ly~ mu sic~|
 [E,G,]2 [E,G,]2 [E,G,]3 [E,G,] | A,2 [C,A,]2 [E,G,]4 | [A,,A,]2 [A,,E,]2 E,2 A,[D,A,] | %5
w: Blend~ in~ one~ har|mo nious~ sound,~|So~ the~ mem * bers~|
 [D,F,]2 [D,F,]2 [A,,A,]2 [A,,A,]2 | [A,,A,]2 [B,,G,]2 [C,A,]3 [C,A,] | [D,A,]2 [D,F,]2 [A,,E,]4 | %8
w: of~ Christ's~ bod y~|In~ blest~ u ni|ty~ are~ found�~|
 [E,G,]2 [E,G,]2 [E,G,]3 [E,A,] | [E,G,]2 [E,G,]2 A,2 [A,C]2 | [A,C]2 [A,C]2 [A,D]3 [A,C] | %11
w: One~ in~ mind,~ and~|one~ in~ spir it,~|One~ in~ doc trine,~|
 A,2 [F,B,]2 [E,G,]4 | [A,,A,]2 [A,,E,]2 E,2 A,[D,A,] | [D,F,]2 [D,F,]2 [A,,A,]2 [A,,A,]2 | %14
w: faith,~ and~ love;~|One~ in~ name�~ * oh,~|pre cious~ un ion,~|
 [A,,A,]2 [B,,G,]2 [C,A,]3 [C,A,] | [D,A,]2 [D,F,]2 [A,,E,]4 |] %16
w: Like~ the~ an gel~|hosts~ a bove.~|
V:3
 x8 | x8 | x8 | x8 | z4 A,,4 | x8 | x8 | x8 | x8 | x8 | x8 | x8 | z4 A,,4 | x8 | x8 | x8 |] %16

